X:1
T:In Laetitia
T:Velthur Tognoni 21 Ottobre 2008
T:In Laetitia
C:Velthur Tognoni
C:21 Ottobre 2008
%%score [ 1 2 3 ]
L:1/8
Q:1/8=280
M:4/4
K:G
V:1 treble nm="Soprani e Alti" snm="S&amp;A."
V:2 treble-8 transpose=-12 nm="Tenori" snm="T."
V:3 bass nm="Bassi" snm="B."
V:1
 AGED GAB | (ED)E(G A)E D2 E2 | (CE)D(G A)G F2 F2 | EFGE DC B,2 B,2 | AGED GAB | %5
w: A- do- re- mus Do- mi- ne,|a- * do- re- * mus Chri- ste,|ju- * bi- la- * te De- o,|ju- bi- la- te om- nis ter- rae,|A- do- re- mus Do- mi- ne,|
 (ED)E(G A)E D2 E2 | (CE)D(G A)G F2 F2 | EFGE DC B,2 B,2 |: CEDG | EGFB | GBAc | BdGB EGF | %12
w: a- * do- re- * mus Chri- ste,|ju- * bi- la- * te De- o,|ju- bi- la- te om- nis ter- rae,|ju- bi- la- te,|ju- bi- la- te,|ju- bi- la- te,|a- do- re- mus Do- mi- ne|
 D2 E2 :| B4 d4 | G4 B4 | E4 G4 | F8 | E8!D.C.! |] %18
w: De- us.|Ju- bi-|la- te|om- nis|ter-|rae.|
V:2
 z2 B2 A2 !arpeggio!B- | B- B2 B2 c3 !arpeggio!B2 | A2 G2 (d e3) !arpeggio!d2 | %3
w: A- do- re-|* * mus Chri- ste,|ju- bi- la- * te|
 c2 B2 B2 !arpeggio!B4 | z2 c2 c2 !arpeggio!B- | (B c2) ^c2 B3 !arpeggio!=c2 | %6
w: om- nis ter- rae,|A- do- re-|* * mus Chri- ste,|
 A2 G2 (d e3) !arpeggio!d2 | c2 B2 B2 !arpeggio!B4 |: A2 !arpeggio!!>!G2 | c2 !arpeggio!B2 | %10
w: ju- bi- la- * te|om- nis ter- rae,|ser- vi-|te, ser-|
 !>!e2 !arpeggio!d2 | d2 B2 G2 !arpeggio!c- | c2 B2 :| d8 | e8 | c8 | B8 | B8 |] %18
w: vi- te|et in- tro- i-|* te|om-|nis|ter-||rae.|
V:3
 z2 [E,G,]2 [D,F,]2 !arpeggio![D,G,]- | ([D,-G,] [D,F,]2) [E,G,]2 [E,A,]3 !arpeggio![E,^G,]2 | %2
w: A- do- re-|* * mus Chri- ste,|
 A,,2 B,,2 (F,G,) !arpeggio!A,4 | G,2 E,2 [D,F,]2 !arpeggio![E,^G,]4 | %4
w: ju- bi- la- * te|om- nis ter- rae,|
 z2 [E,G,]2 [F,A,]2 !arpeggio![E,^G,]- | (([E,G,] [F,A,]2)) [E,A,]2 [E,=G,]3 !arpeggio![E,G,]2 | %6
w: A- do- re-|* * mus Chri- ste,|
 A,,2 B,,2 (F,G,) !arpeggio!A,4 | G,2 E,2 [D,F,]2 !arpeggio![E,^G,]4 |: A,,2 !arpeggio!!>!B,,2 | %9
w: ju- bi- la- * te|om- nis ter- rae,|ser- vi-|
 C,2 !arpeggio!D,2 | !>!E,2 !arpeggio!F,2 | G,2 E,2 C,2 !arpeggio![F,A,]- | [F,A,]2 [E,^G,]2 :| %13
w: te, ser-|vi- te|et in- tro- i-|* te|
 [=G,B,]8 | [G,C]8 | A,8 | A,8 | G,8 |] %18
w: om-|nis|ter-||rae.|

